packages/core/src/svgs/networks/mono/oasys.svg

<svg width="24" height="24" viewBox="0 0 24 24" fill="none" xmlns="http://www.w3.org/2000/svg">
<path d="M17.8918 14.6397C18.2524 14.246 18.5749 13.8102 18.8558 13.3357C19.5319 12.1863 19.8717 10.9244 19.8717 9.55009C19.8717 8.17574 19.5354 6.88928 18.8627 5.73638C18.19 4.57997 17.2885 3.6696 16.1546 3.00176C15.0208 2.33392 13.7933 2 12.4757 2C11.1581 2 9.90985 2.33392 8.76907 3.00176C7.62829 3.6696 6.71983 4.57996 6.04022 5.72935C5.36061 6.87873 5.02427 8.13357 5.02427 9.49736C5.02427 10.8612 5.36408 12.1933 6.04022 13.3497C6.32802 13.8418 6.66089 14.2917 7.0319 14.6924C5.77323 15.4692 5 16.5132 5 17.6591C5 20.0527 8.36338 22 12.5 22C16.6366 22 20 20.0527 20 17.6591C20 16.4886 19.1956 15.4235 17.8883 14.6432L17.8918 14.6397ZM7.12205 19.5149C6.37656 18.9525 5.97087 18.3093 5.97087 17.6555C5.97087 16.8506 6.58807 16.0562 7.70458 15.4165C7.72538 15.406 7.74619 15.3919 7.77046 15.3814C8.07906 15.6344 8.40499 15.8629 8.7552 16.0703C8.78988 16.0914 8.82802 16.109 8.86269 16.13C7.66297 16.7276 6.90014 17.6169 6.90014 18.6046C6.90014 18.9209 6.97642 19.2232 7.12205 19.5149ZM12.5069 20.8858C10.8044 20.8858 9.87517 20.1371 9.87517 19.7504C9.87517 19.3638 10.8044 18.6151 12.5069 18.6151C14.2094 18.6151 15.1387 19.3638 15.1387 19.7504C15.1387 20.1371 14.2094 20.8858 12.5069 20.8858ZM16.0784 20.007C16.0957 19.9227 16.1061 19.8383 16.1061 19.7504C16.1061 18.5835 14.4903 17.638 12.5069 17.638C10.5236 17.638 8.90777 18.587 8.90777 19.7504C8.90777 19.8383 8.91817 19.9227 8.93551 20.007C8.2767 19.6098 7.86755 19.1178 7.86755 18.6046C7.86755 17.8313 8.79334 17.1072 10.1006 16.6889C10.8322 16.9385 11.5915 17.0615 12.3856 17.0615C13.2351 17.0615 14.0465 16.9279 14.8197 16.6608C16.1789 17.0721 17.1463 17.8172 17.1463 18.6046C17.1463 19.1178 16.7372 19.6098 16.0784 20.007ZM17.8918 19.5149C18.0374 19.2267 18.1137 18.9209 18.1137 18.6046C18.1137 17.5923 17.3162 16.6889 16.0714 16.0879C16.0888 16.0773 16.1061 16.0703 16.1234 16.0598C16.4945 15.8453 16.8412 15.6028 17.1602 15.3357C17.2087 15.3638 17.2607 15.3884 17.3093 15.4165C18.4258 16.0562 19.043 16.8506 19.043 17.6555C19.043 18.3058 18.6408 18.9525 17.8918 19.5149Z" fill="white"/>
</svg>

<svg xmlns="http://www.w3.org/2000/svg" width="24" height="24" fill="none" viewBox="0 0 24 24">
    <path fill="#fff" d="M17.892 14.64q.541-.592.964-1.304a7.33 7.33 0 0 0 1.016-3.786c0-1.374-.337-2.66-1.01-3.814a7.5 7.5 0 0 0-2.707-2.734A7.1 7.1 0 0 0 12.475 2 7.24 7.24 0 0 0 8.77 3.002a7.57 7.57 0 0 0-2.73 2.727 7.26 7.26 0 0 0-1.016 3.768c0 1.364.34 2.696 1.016 3.853.288.492.62.942.992 1.342C5.773 15.47 5 16.513 5 17.66 5 20.053 8.363 22 12.5 22s7.5-1.947 7.5-4.34c0-1.171-.804-2.236-2.112-3.017zm-10.77 4.875c-.745-.562-1.151-1.206-1.151-1.86 0-.804.617-1.599 1.734-2.239l.065-.035c.31.253.635.482.985.69l.108.059c-1.2.598-1.963 1.487-1.963 2.475q.001.473.222.91m5.385 1.37c-1.703 0-2.632-.748-2.632-1.135 0-.386.93-1.135 2.632-1.135s2.632.749 2.632 1.135c0 .387-.93 1.136-2.632 1.136m3.571-.878q.027-.125.028-.257c0-1.166-1.616-2.112-3.6-2.112-1.982 0-3.598.949-3.598 2.112q0 .131.028.257c-.66-.397-1.068-.89-1.068-1.402 0-.774.925-1.498 2.233-1.916q1.095.373 2.285.372 1.274 0 2.434-.4c1.359.411 2.326 1.156 2.326 1.944 0 .513-.409 1.005-1.068 1.402m1.814-.492a2 2 0 0 0 .222-.91c0-1.013-.798-1.916-2.043-2.517l.052-.028a7.3 7.3 0 0 0 1.037-.724l.15.08c1.116.64 1.733 1.435 1.733 2.24 0 .65-.402 1.297-1.151 1.859"/>
</svg>
